X: 1
T: AIR: Inis Oírr
T: Inisheer
C: C: Tommy Walsh; S: Various
C: Set Leaders: Tania, Anton, Mars, Sophie
Z: Anton Zille ed., Oleg Naumov arr.; laura nesbit at The Session
N: https://thesession.org/members/26966/sets/92389
R: Air
M: 3/4
L: 1/8
Q: 1/4=144
K: Gmaj
|:"G"B3 A "(D/F#)"Bd|"Em"B2 BA Bd|"C"E3 B AB|"D"D3 B AG|
"G"B3 A "(D/F#)"Bd|"Em"B2 BA Bd|"C"G3 B "D/F#"A/G/F|1 "G"G3 D ED:|2 "G"G3 A Bd||
"Em"e3 f ed|"Bm"B3 A Bd|"Em"ef ed B/c/d|
"C"e3 A Bd|"Em"e2 ef ed|"G"B3 A Bd|"D"G3 B "D/F#"A/G/F|
"G"G2 GA Bd|"Em"e2 ef ed|"Bm"B2 BA Bd|"Em"gf ed B/c/d|
"C"e3 f gf|"Em"e2 ef ed|"G"B3 A Bd|"D"D3 B "D/F#"A/G/F|"G"G3 D ED||

